src/shared/assets/leaderboard.svg

<svg width="24" height="24" viewBox="0 0 24 24" fill="none" xmlns="http://www.w3.org/2000/svg">
<g clip-path="url(#clip0_4_1956)">
<path d="M8.14236 4.66667C8.36458 10.2465 9.68056 12.7014 10.6354 13.7535C11.1111 14.2778 11.5347 14.4965 11.7847 14.5903C11.875 14.625 11.9479 14.6424 11.9965 14.6563C12.0451 14.6458 12.1181 14.625 12.2083 14.5903C12.4583 14.4965 12.8819 14.2778 13.3576 13.7535C14.3125 12.7014 15.6319 10.2465 15.8507 4.66667H8.14236ZM8.11111 3H15.8889C16.809 3 17.559 3.75694 17.5243 4.67361C17.5174 4.85764 17.5104 5.04167 17.5 5.22222H21.1667C21.6285 5.22222 22 5.59375 22 6.05556C22 9.82292 20.4063 12.2257 18.4792 13.7153C16.6076 15.1632 14.4618 15.7153 13.2882 15.9271C13.125 16.0139 12.9722 16.0833 12.8333 16.1389V19.1111H15.6111C16.0729 19.1111 16.4444 19.4826 16.4444 19.9444C16.4444 20.4062 16.0729 20.7778 15.6111 20.7778H12H8.38889C7.92708 20.7778 7.55556 20.4062 7.55556 19.9444C7.55556 19.4826 7.92708 19.1111 8.38889 19.1111H11.1667V16.1389C11.0278 16.0833 10.875 16.0139 10.7118 15.9271C9.53819 15.7188 7.39583 15.1632 5.52083 13.7153C3.59375 12.2257 2 9.82292 2 6.05556C2 5.59375 2.37153 5.22222 2.83333 5.22222H6.5C6.48958 5.04167 6.48264 4.86111 6.47569 4.67361C6.44097 3.75694 7.19097 3 8.11111 3ZM15.5694 13.5069C16.1979 13.2292 16.8472 12.8681 17.4583 12.3958C18.8681 11.309 20.0938 9.61111 20.3021 6.88889H17.3715C17.0556 10.0174 16.3576 12.1076 15.5694 13.5069ZM6.54167 12.3958C7.14931 12.8681 7.80208 13.2292 8.43056 13.5069C7.64236 12.1076 6.94444 10.0174 6.62847 6.88889H3.69792C3.90625 9.61111 5.13194 11.309 6.54167 12.3958ZM12.25 6.55903L12.7535 7.57639C12.7951 7.65972 12.8715 7.71528 12.9618 7.72917L14.0868 7.89236C14.316 7.92708 14.4063 8.20486 14.2396 8.36458L13.4271 9.15625C13.3611 9.21875 13.3333 9.3125 13.3472 9.40278L13.5382 10.5208C13.5764 10.7465 13.3403 10.9201 13.1354 10.8125L12.1285 10.2847C12.0486 10.2431 11.9514 10.2431 11.8715 10.2847L10.8646 10.8125C10.6597 10.9201 10.4236 10.7465 10.4618 10.5208L10.6528 9.40278C10.6667 9.3125 10.6389 9.22222 10.5729 9.15625L9.76042 8.36458C9.59722 8.20486 9.6875 7.92361 9.91319 7.89236L11.0382 7.72917C11.1285 7.71528 11.2083 7.65972 11.2465 7.57639L11.75 6.55903C11.8507 6.35417 12.1458 6.35417 12.2465 6.55903H12.25Z" fill="#3E414F"/>
</g>
<defs>
<clipPath id="clip0_4_1956">
<rect width="20" height="17.7778" fill="white" transform="translate(2 3)"/>
</clipPath>
</defs>
</svg>

<svg xmlns="http://www.w3.org/2000/svg" width="24" height="24" fill="currentColor" viewBox="0 0 24 24">
  <g clip-path="url(#a)">
    <path d="M8.142 4.667c.223 5.58 1.539 8.034 2.493 9.087.476.524.9.742 1.15.836.09.035.163.052.211.066.05-.01.122-.031.212-.066.25-.094.674-.312 1.15-.836.954-1.053 2.274-3.508 2.493-9.087H8.142ZM8.112 3h7.777c.92 0 1.67.757 1.635 1.674-.007.184-.014.368-.024.548h3.667c.461 0 .833.372.833.834 0 3.767-1.594 6.17-3.52 7.66-1.872 1.447-4.018 2-5.192 2.211a4.646 4.646 0 0 1-.455.212v2.972h2.778c.462 0 .833.372.833.833a.831.831 0 0 1-.833.834H8.39a.831.831 0 0 1-.833-.834c0-.461.371-.833.833-.833h2.778V16.14a4.646 4.646 0 0 1-.455-.212c-1.174-.208-3.316-.764-5.191-2.212C3.594 12.225 2 9.823 2 6.055c0-.461.372-.833.833-.833H6.5c-.01-.18-.017-.36-.024-.548C6.44 3.757 7.19 3 8.11 3Zm7.457 10.507a9.093 9.093 0 0 0 1.89-1.111c1.41-1.087 2.635-2.785 2.843-5.507h-2.93c-.316 3.128-1.014 5.219-1.803 6.618Zm-9.027-1.111c.607.472 1.26.833 1.889 1.11-.789-1.398-1.487-3.489-1.803-6.617h-2.93c.208 2.722 1.434 4.42 2.844 5.507Zm5.708-5.837.504 1.017a.278.278 0 0 0 .208.153l1.125.163c.229.035.32.313.153.473l-.813.791a.28.28 0 0 0-.08.247l.191 1.118a.277.277 0 0 1-.403.291l-1.006-.527a.28.28 0 0 0-.258 0l-1.006.527a.277.277 0 0 1-.403-.291l.19-1.118a.284.284 0 0 0-.08-.247l-.812-.791a.277.277 0 0 1 .153-.473l1.125-.163c.09-.014.17-.07.208-.153l.504-1.017a.277.277 0 0 1 .496 0h.004Z"/>
  </g>
  <defs>
    <clipPath id="a">
      <path d="M2 3h20v17.778H2z"/>
    </clipPath>
  </defs>
</svg>
